img/mail_red.svg

<svg width="15" height="15" viewBox="0 0 15 15" fill="none" xmlns="http://www.w3.org/2000/svg">
<path d="M2.5 2.5H12.5C13.1875 2.5 13.75 3.0625 13.75 3.75V11.25C13.75 11.9375 13.1875 12.5 12.5 12.5H2.5C1.8125 12.5 1.25 11.9375 1.25 11.25V3.75C1.25 3.0625 1.8125 2.5 2.5 2.5Z" fill="#DA2B36"/>
<path d="M13.75 3.75L7.5 8.125L1.25 3.75" stroke="#F5E9EA" stroke-linecap="round" stroke-linejoin="round"/>
</svg>

<svg width="15" height="15" fill="none" xmlns="http://www.w3.org/2000/svg"><path d="M2.5 2.5h10c.688 0 1.25.563 1.25 1.25v7.5c0 .688-.563 1.25-1.25 1.25h-10c-.688 0-1.25-.563-1.25-1.25v-7.5c0-.688.563-1.25 1.25-1.25Z" fill="#DA2B36"/><path d="M13.75 3.75 7.5 8.125 1.25 3.75" stroke="#F5E9EA" stroke-linecap="round" stroke-linejoin="round"/></svg>
